X: 09027
T: DAVE MILLER'S JIG
C: Bob McQuillen 29 Sept 92
B: Bob's Note Book 9 #27
R: jig
Z: 2019 John Chambers <jc:trillian.mit.edu>
M: 6/8
L: 1/8
K: D
f2e \
| dfd AFA | d2B GBd | cec ABc | fdb a2g |
| faf dfa | gab e2g | fAf edc | d3 :|
|: f2g \
| a2a fed | cde e2f | gfg ecA | aba gfe |
| dfd AFA | d2B GBd | cBA gfe | d3 :|
%%begintext align
%% If you've ever been to anything
%% involving traditional music in the Philly area, then you've
%% seen, met, jammed, or whatever, with Dave Miller. He is the
%% definitive enthusiast. He brings himself and his fiddle to
%% Neffa every year, too, so I know that, one way or another, I'm
%% going to enjoy playing music with him before long. Best
%% wishes always to you, Dave.
%%endtext

%%sep 1 1 500

%%sep 1 1 500

